usr/share/icons/biglinux-icons-material/16/places/folder-yandex-disk.svg

<svg xmlns="http://www.w3.org/2000/svg" width="16" height="16" version="1.1" viewBox="0 0 16 16">
 <defs>
  <style id="current-color-scheme" type="text/css">
   .ColorScheme-Text { color:#363636; }
  </style>
 </defs>
 <path class="ColorScheme-Text" fill="currentColor" d="m 7.0919985,2.0465708 c -3.5555563,0 -2.7283812,3.2481694 -4.5488281,4.226563 -0.062744,0.0356 -0.098024,0.06839 -0.1542969,0.103515 1.2005478,-0.714589 2.6803078,-1.3120668 4.251953,-1.7167968 1.330908,-0.342378 2.68084,-0.5344587 3.9257815,-0.5585937 0.03199,-1.14e-4 0.0639,-1.14e-4 0.0957,0 C 9.4617305,3.7600926 9.3304495,2.0465708 7.0919985,2.0465708 Z M 10.966999,5.0016489 C 9.7220575,5.0257889 8.3721255,5.2178637 7.0412175,5.5602427 2.6547436,6.6890038 -0.47142449,9.1435916 0.05879541,11.042664 c 0.3055213,1.085204 1.77756929,1.801316 3.97070309,1.931641 -10e-4,-0.0082 -0.00301,-0.01523 -0.00391,-0.02344 -0.118387,-1.026757 0.533079,-1.919941 1.296875,-2.525392 0.7637961,-0.6054524 1.746269,-1.0450844 2.849609,-1.2792964 1.10334,-0.234211 2.1364155,-0.222891 3.0000005,0.03711 0.811893,0.244438 1.575746,0.777804 1.763672,1.6933584 C 15.13382,9.6443116 16.273908,8.1584776 15.943557,6.9567238 15.593603,5.69853 13.685003,4.9487239 10.966999,5.0016489 Z M 9.6623105,9.9996956 A 1.8585774,3.5769585 76.001371 0 0 8.2853575,10.142273 1.8585774,3.5769585 76.001371 0 0 5.006061,12.741884 1.8585774,3.5769585 76.001371 0 0 8.7150455,13.857118 1.8585774,3.5769585 76.001371 0 0 11.99239,11.257507 1.8585774,3.5769585 76.001371 0 0 9.6623105,9.9996956 Z" />
</svg>

<svg xmlns="http://www.w3.org/2000/svg" width="16" height="16"><path fill="currentColor" d="M7.092 2.047c-3.556 0-2.728 3.248-4.549 4.226-.063.036-.098.069-.154.104 1.2-.715 2.68-1.312 4.252-1.717a17.347 17.347 0 0 1 4.021-.559c-1.2-.34-1.332-2.054-3.57-2.054Zm3.875 2.955a17.347 17.347 0 0 0-3.926.558C2.655 6.69-.47 9.144.06 11.043c.305 1.085 1.777 1.801 3.97 1.931 0-.008-.003-.015-.003-.023-.119-1.027.533-1.92 1.296-2.526.764-.605 1.747-1.045 2.85-1.279 1.103-.234 2.136-.223 3 .037.812.245 1.576.778 1.764 1.694 2.198-1.233 3.338-2.719 3.008-3.92-.35-1.258-2.259-2.008-4.977-1.955ZM9.662 10a1.859 3.577 76.001 0 0-1.377.142 1.859 3.577 76.001 0 0-3.279 2.6 1.859 3.577 76.001 0 0 3.709 1.115 1.859 3.577 76.001 0 0 3.277-2.6A1.859 3.577 76.001 0 0 9.662 10Z" style="color:#dedede"/></svg>
